src/assets/icons/bike.svg

<?xml version="1.0" encoding="UTF-8"?>
<svg width="32px" height="32px" viewBox="0 0 32 32" version="1.1" xmlns="http://www.w3.org/2000/svg" xmlns:xlink="http://www.w3.org/1999/xlink">
    <!-- Generator: Sketch 61.2 (89653) - https://sketch.com -->
    <title>Atoms/Ikoner/Skilt/Bike</title>
    <desc>Created with Sketch.</desc>
    <g id="Atoms/Ikoner/Skilt/Bike" stroke="none" stroke-width="1" fill="none" fill-rule="evenodd">
        <g id="Sykkel">
            <path d="M24.325,4.379 L24.809,6.319 L21.874,7.053 L24.026,13.174 C24.5,13.064 24.992,13 25.5,13 C29.09,13 32,15.91 32,19.5 C32,23.09 29.09,26 25.5,26 C21.91,26 19,23.09 19,19.5 C19,17.129 20.274,15.06 22.17,13.925 L22.17,13.925 L20.981,10.543 L20.783,10.572 L17.739,20.495 L12.916,20.495 C12.436,23.611 9.751,26 6.5,26 C2.91,26 0,23.09 0,19.5 C0,15.91 2.91,13 6.5,13 C9.747,13 12.43,15.384 12.914,18.495 L12.914,18.495 L14.516,18.495 L9.514,10.215 L20.306,8.621 L19.26,5.645 L24.325,4.379 Z M6.5,15 C4.019,15 2,17.019 2,19.5 C2,21.981 4.019,24 6.5,24 C8.981,24 11,21.981 11,19.5 C11,17.019 8.981,15 6.5,15 Z M25.5,15 C23.019,15 21,17.019 21,19.5 C21,21.981 23.019,24 25.5,24 C27.981,24 30,21.981 30,19.5 C30,17.019 27.981,15 25.5,15 Z M6.5,18 C7.32842712,18 8,18.6715729 8,19.5 C8,20.3284271 7.32842712,21 6.5,21 C5.67157288,21 5,20.3284271 5,19.5 C5,18.6715729 5.67157288,18 6.5,18 Z M25.5,18 C26.3284271,18 27,18.6715729 27,19.5 C27,20.3284271 26.3284271,21 25.5,21 C24.6715729,21 24,20.3284271 24,19.5 C24,18.6715729 24.6715729,18 25.5,18 Z M18.592,10.896 L12.781,11.754 L16.46,17.845 L18.592,10.896 Z M12,6 L12,8 L6,8 L6,6 L12,6 Z" id="Combined-Shape" fill="#2A2859"></path>
        </g>
    </g>
</svg>

<svg xmlns="http://www.w3.org/2000/svg" width="32" height="32" viewBox="0 0 32 32"><defs><style>.cls-1{fill-rule:evenodd;}</style></defs><g id="bike"><path id="Combined-Shape" class="cls-1" d="M24.33,4.38l.48,1.94-2.94.73L24,13.17A6.43,6.43,0,0,1,25.5,13a6.51,6.51,0,1,1-3.33.92h0L21,10.54l-.2,0-3,9.92H12.92a6.52,6.52,0,1,1,0-2h1.61l-5-8.28,10.8-1.59-1-3ZM6.5,15A4.5,4.5,0,1,0,11,19.5,4.51,4.51,0,0,0,6.5,15Zm19,0A4.5,4.5,0,1,0,30,19.5,4.51,4.51,0,0,0,25.5,15Zm-19,3A1.5,1.5,0,1,1,5,19.5,1.5,1.5,0,0,1,6.5,18Zm19,0A1.5,1.5,0,1,1,24,19.5,1.5,1.5,0,0,1,25.5,18Zm-6.91-7.1-5.81.85,3.68,6.09ZM12,6V8H6V6Z"/></g></svg>
